icons/skype-fill.svg

<svg xmlns="http://www.w3.org/2000/svg" width="24" height="24" fill="none"><g clip-path="url(#a)"><g><path fill="#121212" d="M13.31 20.4C11.9877 20.6066 10.6353 20.498 9.36296 20.0831C8.09057 19.6681 6.93413 18.9586 5.98779 18.0123C5.04144 17.0659 4.33193 15.9095 3.91701 14.6371C3.50209 13.3647 3.39348 12.0123 3.60004 10.69C3.07877 9.69855 2.88829 8.56632 3.05644 7.45885C3.2246 6.35138 3.74257 5.32672 4.53464 4.53464C5.32672 3.74257 6.35138 3.2246 7.45885 3.05644C8.56632 2.88829 9.69855 3.07877 10.69 3.60004C12.0123 3.39348 13.3647 3.50209 14.6371 3.91701C15.9095 4.33193 17.0659 5.04144 18.0123 5.98779C18.9586 6.93413 19.6681 8.09057 20.0831 9.36296C20.498 10.6353 20.6066 11.9877 20.4 13.31C20.9213 14.3015 21.1118 15.4337 20.9436 16.5412C20.7755 17.6487 20.2575 18.6734 19.4654 19.4654C18.6734 20.2575 17.6487 20.7755 16.5412 20.9436C15.4337 21.1118 14.3015 20.9213 13.31 20.4ZM12.052 17.156H12.012C14.884 17.156 16.315 15.77 16.315 13.913C16.315 12.715 15.764 11.442 13.589 10.955L11.606 10.515C10.851 10.343 9.98404 10.115 9.98404 9.40003C9.98404 8.68503 10.604 8.18704 11.708 8.18704C13.938 8.18704 13.735 9.71504 14.839 9.71504C15.415 9.71504 15.932 9.37303 15.932 8.78504C15.932 7.41504 13.735 6.38504 11.876 6.38504C9.85504 6.38504 7.70304 7.24404 7.70304 9.52904C7.70304 10.627 8.09703 11.799 10.263 12.342L12.952 13.013C13.768 13.215 13.97 13.672 13.97 14.085C13.97 14.772 13.286 15.443 12.052 15.443C9.63504 15.443 9.97404 13.586 8.67804 13.586C8.09804 13.586 7.67504 13.984 7.67504 14.557C7.67504 15.671 9.02704 17.155 12.052 17.155V17.156Z"/></g></g><defs><clipPath id="a"><rect width="24" height="24" fill="white"/></clipPath></defs></svg>

<svg width="24" height="24" fill="none" xmlns="http://www.w3.org/2000/svg"><g clip-path="url(#a)"><path d="M13.31 20.4a8.5 8.5 0 0 1-9.71-9.71 5.25 5.25 0 0 1 7.09-7.09 8.5 8.5 0 0 1 9.71 9.71 5.25 5.25 0 0 1-7.09 7.09Zm-1.258-3.244h-.04c2.872 0 4.303-1.386 4.303-3.243 0-1.198-.551-2.471-2.726-2.958l-1.983-.44c-.755-.172-1.622-.4-1.622-1.115s.62-1.213 1.724-1.213c2.23 0 2.027 1.528 3.131 1.528.576 0 1.093-.342 1.093-.93 0-1.37-2.197-2.4-4.056-2.4-2.021 0-4.173.859-4.173 3.144 0 1.098.394 2.27 2.56 2.813l2.689.671c.816.202 1.018.659 1.018 1.072 0 .687-.684 1.358-1.918 1.358-2.417 0-2.078-1.857-3.374-1.857-.58 0-1.003.398-1.003.971 0 1.114 1.352 2.598 4.377 2.598v.001Z" /></g><defs><clipPath id="a"><path fill="#fff" d="M0 0h24v24H0z"/></clipPath></defs></svg>
